X: 45
T: No_145_I_Have_Come_After_Your_Stake.krn
N: Derived from No_145_I_Have_Come_After_Your_Stake.krn
%%abc-version 2.0
%%abcx-abcm2ps-target-version 5.9.1 (29 Sep 2008)
%%abc-creator hum2abc beta
%%abcx-conversion-date 2019/03/15 08:29:13
%%humdrum-veritas 1374021496
%%humdrum-veritas-data 329721106
%%linebreak <none>
%%barnumbers 0
L: 1/16
M: 4/4
%%staves {1 2}
V: 1 clef=bass
V: 2 clef=bass
K: F
[V:1] F4 [I:setbarnb 1]| 
[V:2] z4 | 
[V:1] [M:3/4]FDD2D6DB, | 
[V:2] [M:3/4]G,,!accent!G,,2 z G,,!accent!G,,2 z G,,!accent!G,,2 z | 
[V:1] (3D2A,2A,2A,8 | 
[V:2] z12 | 
[V:1] DDDDA,6A,2 | 
[V:2] z12 | 
[V:1] F,F,D,A,, {/F,} (D,D,)D,D,D,4 | 
[V:2] z12 | 
[V:1] DA,F,A, F,D,D,D,-D,4 | 
[V:2] z12 | 
[V:1] {/F,} D,B,,A,,A,, A,,A,,A,,A,,A,,4 |]  
[V:2] z12 |]  



